<?xml version="1.0" encoding="UTF-8"?>
<map version="1.10" tiledversion="1.10.2" orientation="orthogonal" renderorder="right-down" width="15" height="10" tilewidth="16" tileheight="16" infinite="0" nextlayerid="5" nextobjectid="1">
 <editorsettings>
  <export target="boat_1.json" format="json"/>
 </editorsettings>
 <tileset firstgid="1" source="../boat_tileset.tsx"/>
 <layer id="1" name="water" width="15" height="10">
  <data encoding="csv">
5,5,5,5,5,5,5,5,5,5,5,5,5,5,5,
5,5,5,5,5,5,5,5,5,5,5,5,4,5,5,
5,5,5,5,5,5,5,5,5,5,5,5,5,4,5,
5,5,5,5,5,4,4,5,5,5,5,5,5,5,5,
5,5,5,5,5,4,5,5,5,5,5,5,5,5,5,
5,4,5,5,5,5,5,5,5,5,5,5,5,5,5,
5,5,5,5,5,5,5,5,5,5,5,5,5,5,5,
5,5,5,4,5,5,5,5,5,5,5,5,5,5,5,
5,5,4,4,5,5,5,5,5,5,5,5,5,5,5,
5,5,5,5,5,5,5,5,5,5,5,5,5,5,5
</data>
 </layer>
 <layer id="2" name="ground" width="15" height="10">
  <data encoding="csv">
0,0,0,1,2,2,2,2,2,2,2,2,12,2,3,
0,0,1,7,7,7,7,7,7,7,7,8,0,11,8,
0,1,7,7,7,12,12,7,7,7,7,7,3,0,8,
1,7,7,7,8,0,0,6,7,7,7,7,7,2,8,
6,12,7,7,8,0,1,7,7,7,7,7,7,7,13,
6,0,6,7,7,2,7,7,7,7,7,7,7,8,0,
6,2,7,12,7,7,7,7,7,7,7,7,7,13,0,
6,7,13,0,6,7,7,7,7,7,7,12,13,0,0,
6,8,0,0,6,7,7,7,7,7,13,0,0,0,0,
11,12,12,12,12,12,12,12,12,13,0,0,0,0,0
</data>
 </layer>
 <layer id="3" name="obstacles" width="15" height="10">
  <data encoding="csv">
9,9,9,0,0,0,0,0,0,0,0,0,0,0,0,
9,9,0,0,0,0,0,0,0,0,0,0,9,0,0,
9,0,0,0,0,0,0,0,0,0,0,0,0,9,0,
0,0,14,15,0,9,9,0,0,0,0,0,0,0,0,
0,0,0,0,0,9,0,0,0,0,0,0,0,0,0,
0,9,0,0,0,10,0,0,0,0,0,0,0,0,9,
0,0,0,0,0,0,0,0,0,0,0,0,0,0,9,
0,0,0,9,0,0,0,0,0,0,15,0,0,9,9,
0,0,9,9,0,0,0,0,0,0,0,9,9,9,9,
0,0,0,0,0,0,0,0,0,0,9,9,9,9,9
</data>
 </layer>
</map>
