<?xml version="1.0" encoding="UTF-8"?>
<map version="1.10" tiledversion="1.10.2" orientation="orthogonal" renderorder="right-down" width="15" height="10" tilewidth="16" tileheight="16" infinite="0" nextlayerid="3" nextobjectid="1">
 <tileset firstgid="1" name="Barco" tilewidth="16" tileheight="16" tilecount="12" columns="4">
  <image source="../../../../../Art/Tiles/Boat_tileset.png" width="64" height="48"/>
 </tileset>
 <layer id="1" name="ground" width="15" height="10">
  <data encoding="csv">
1,2,2,1,2,2,2,2,2,2,2,2,2,2,3,
5,6,1,6,6,6,6,6,6,6,6,6,6,6,7,
5,1,6,6,6,6,6,6,6,6,6,6,6,6,7,
1,6,6,6,6,6,6,6,6,6,6,6,6,6,7,
5,6,6,6,6,6,6,6,6,6,6,6,6,6,11,
5,6,6,6,6,6,6,6,6,6,6,6,6,7,7,
5,6,6,6,6,6,6,6,6,6,6,6,6,11,7,
5,6,6,6,6,6,6,6,6,6,6,10,11,6,7,
5,6,6,6,6,6,6,6,6,6,11,6,6,6,7,
9,10,10,10,10,10,10,10,10,10,10,10,10,10,11
</data>
 </layer>
 <layer id="2" name="water" width="15" height="10">
  <data encoding="csv">
12,12,12,0,0,0,0,0,0,0,0,0,0,0,0,
12,12,0,0,0,0,0,0,0,0,0,0,4,0,0,
12,0,0,0,0,0,0,0,0,0,0,0,0,4,0,
0,0,0,0,0,4,4,0,0,0,0,0,0,0,0,
0,0,0,0,0,4,0,0,0,0,0,0,0,0,0,
0,4,0,0,0,0,0,0,0,0,0,0,0,0,12,
0,0,0,0,0,0,0,0,0,0,0,0,0,0,12,
0,0,0,4,0,0,0,0,0,0,0,0,0,12,12,
0,0,4,4,0,0,0,0,0,0,0,12,12,12,12,
0,0,0,0,0,0,0,0,0,0,12,12,12,12,12
</data>
 </layer>
</map>
