<?xml version="1.0" encoding="UTF-8"?>
<map version="1.10" tiledversion="1.10.2" orientation="orthogonal" renderorder="right-down" width="15" height="10" tilewidth="16" tileheight="16" infinite="0" nextlayerid="5" nextobjectid="1">
 <tileset firstgid="1" name="Barco" tilewidth="16" tileheight="16" tilecount="12" columns="4">
  <image source="../../../../../Art/Tiles/Boat_tileset.png" width="64" height="48"/>
  <tile id="0">
   <properties>
    <property name="collides" type="bool" value="false"/>
   </properties>
  </tile>
  <tile id="1">
   <properties>
    <property name="collides" type="bool" value="false"/>
   </properties>
  </tile>
  <tile id="2">
   <properties>
    <property name="collides" type="bool" value="false"/>
   </properties>
  </tile>
  <tile id="3">
   <properties>
    <property name="collides" type="bool" value="false"/>
   </properties>
  </tile>
  <tile id="4">
   <properties>
    <property name="collides" type="bool" value="false"/>
   </properties>
  </tile>
  <tile id="5">
   <properties>
    <property name="collides" type="bool" value="false"/>
   </properties>
  </tile>
  <tile id="6">
   <properties>
    <property name="collides" type="bool" value="false"/>
   </properties>
  </tile>
  <tile id="7">
   <properties>
    <property name="collides" type="bool" value="true"/>
   </properties>
  </tile>
  <tile id="8">
   <properties>
    <property name="collides" type="bool" value="false"/>
   </properties>
  </tile>
  <tile id="9">
   <properties>
    <property name="collides" type="bool" value="false"/>
   </properties>
  </tile>
  <tile id="10">
   <properties>
    <property name="collides" type="bool" value="false"/>
   </properties>
  </tile>
  <tile id="11">
   <properties>
    <property name="collides" type="bool" value="false"/>
   </properties>
  </tile>
 </tileset>
 <layer id="2" name="water" width="15" height="10">
  <data encoding="csv">
12,12,12,12,4,4,4,4,4,4,4,4,4,4,4,
12,12,12,4,4,4,4,4,4,4,4,4,4,4,4,
12,12,4,4,4,4,4,4,4,4,4,4,4,4,4,
12,4,4,4,4,4,4,4,4,4,4,4,4,4,4,
4,4,4,4,4,4,4,4,4,4,4,4,4,4,12,
4,4,4,4,4,4,4,4,4,4,4,4,4,12,12,
4,4,4,4,4,4,4,4,4,4,4,4,12,12,12,
4,4,4,4,4,4,4,4,4,4,4,12,12,12,12,
4,4,4,4,4,4,4,4,4,4,12,12,12,12,12,
4,4,4,4,4,4,4,4,4,12,12,12,12,12,12
</data>
 </layer>
 <layer id="1" name="ground" width="15" height="10">
  <data encoding="csv">
0,0,0,1,2,2,2,2,2,2,2,2,10,2,3,
0,0,1,6,6,6,6,6,6,6,6,6,0,9,7,
0,1,6,6,6,10,10,6,6,6,6,6,3,0,7,
1,6,6,6,7,0,0,5,6,6,6,6,6,2,7,
5,10,6,6,7,0,1,6,6,6,6,6,6,6,11,
5,0,5,6,6,2,6,6,6,6,6,6,6,7,0,
5,2,6,10,6,6,6,6,6,6,6,6,6,11,0,
5,6,11,0,5,6,6,6,6,6,6,10,11,0,0,
5,7,0,0,5,6,6,6,6,6,11,0,0,0,0,
9,10,10,10,10,10,10,10,10,11,0,0,0,0,0
</data>
 </layer>
 <layer id="4" name="obstacles" width="15" height="10">
  <data encoding="csv">
8,8,8,0,0,0,0,0,0,0,0,0,0,0,0,
8,8,0,0,0,0,0,0,0,0,0,7,8,0,0,
8,0,0,0,0,0,0,0,0,0,0,0,0,8,0,
0,0,0,0,0,8,8,0,0,0,0,0,0,0,0,
0,0,0,0,0,8,0,0,0,0,0,0,0,0,0,
0,8,0,0,0,0,0,0,0,0,0,0,0,0,8,
0,0,0,0,0,0,0,0,0,0,0,0,0,0,8,
0,0,0,8,0,0,0,0,0,0,0,0,0,8,8,
0,0,8,8,0,0,0,0,0,0,0,8,8,8,8,
0,0,0,0,0,0,0,0,0,0,8,8,8,8,8
</data>
 </layer>
</map>
