<?xml version="1.0" encoding="UTF-8"?>
<map version="1.10" tiledversion="1.11.0" orientation="orthogonal" renderorder="right-down" width="10" height="10" tilewidth="16" tileheight="16" infinite="0" nextlayerid="2" nextobjectid="1">
 <editorsettings>
  <export target="tilemap.json" format="json"/>
 </editorsettings>
 <tileset firstgid="1" name="standard_tileset" tilewidth="16" tileheight="16" tilecount="1" columns="1">
  <image source="tilePrueba.png" width="16" height="16"/>
 </tileset>
 <layer id="1" name="capa 1" width="10" height="10">
  <data encoding="csv">
1,1,1,1,1,1,1,1,1,1,
1,1,1,1,1,1,1,1,1,1,
1,1,1,1,1,1,1,1,1,1,
1,1,1,1,1,1,1,1,1,1,
1,1,1,1,1,1,1,1,1,1,
1,1,1,1,1,1,1,1,1,1,
1,1,1,1,1,1,1,1,1,1,
1,1,1,1,1,1,1,1,1,1,
1,1,1,1,1,1,1,1,1,1,
1,1,1,1,1,1,1,1,1,1
</data>
 </layer>
</map>
